X:1
T:Cantabo Domino - Vecchi
T:#
%%score [ 1 2 3 4 ]
L:1/8
Q:1/4=200
M:none
K:C
V:1 treble nm="Soprano" snm="S"
V:2 treble nm="Alto" snm="A"
V:3 treble-8 nm="Tenor" snm="T"
V:4 bass nm="Bass" snm="B"
V:1
"^Psalm 104(103): 33" d8 G4 d4 |"^Cantabo Domino" c6 c2 B4 G4 | (d6 cB A2 B2 c2 d2 | e8) B4 (d4- | %4
w: Can- ta- bo|Do- mi- no in|vi\- * * * * * *|* ta me\-|
 d4 c2 B2"^Orazio Vecchi\n(1550-1605)" A8- | A8) G8 |[M:4/2] z4 d4 G4 d4 | c6 c2 B4 G4 | %8
w: |* a,|can- ta- bo|Do- mi- no in|
 (d6 cB A2 B2 c2 d2 | e6 dc d8- | d4) d4 (c8- | c4 B2 A2 B2 G2 c4-) | (c4 B4) c8 | z4 e4 (g6 fe | %14
w: vi\- * * * * * *||* ta me\-||* * a,|in vi\- * *|
 d2 c2 d2 e2 f4) e4 | (c2 B2 B2 AG A8) | B4 d8 B4 | d4 e4 d8 | c4 c4 B4 c4 | (B4 A2 G2 A8) | z16 | %21
w: * * * * * ta|me\- * * * * *|a: psal- lam|De- o me-|o quam- di- u|sum, * * *||
 z4 d8 B4 | d4 e4 (d6 c2 | B2 A2 B6 G2 c4-) | (c4 B4) c8 | z8 z4 g4 | e4 g8 a4 | (g6 fe d8) | e16 | %29
w: psal- lam|De- o me\- *||* * o,|psal-|lam De- o|me\- * * *|o,|
 z4 c8 A4 | (c6 d2 e4) f4 | (e4 d8 ^c4) | d4 d4 d8- | d4 e4 d8 | z4 d4 B4 d4 | e4 (c8 B4) | %36
w: psal- lam|De\- * * o|me\- * *|o quam- di\-|* u sum,|psal- lam De-|o me\- *|
 A8 B4 g4- | g4 e4 (g4 d4) | e16 | z4 c4 A4 c4 | d4 (c4 d4) e4 | z4 g4 e4 g4- | g4 f4 e8 | d16 | %44
w: * o, psal\-|* lam De\- *|o,|psal- lam De-|o me\- * o,|psal- lam De\-|* o me-|o|
 z4 G4 d8- | d4 G4 d8 | z4 e4 (c8- | c4 B2 A2 G6 A2) | (^F4 G8) F4 |[Q:1/4=194] G16- | %50
w: quam- di\-|* u sum,|quám- di\-||* * u|sum.|
[Q:1/4=184] G16 |[Q:1/4=174] G16 |[Q:1/4=170] !fermata!G16 |] %53
w: |||
V:2
 z16 | z8 G8 | D4 G4 F6 F2 | E4 C4 G6 (FE | D2 C2 D2 E2 F2 G2 A2 B2 | c8) B4 G4- | %6
w: |Can-|ta- bo Do- mi-|no in vi\- * *||* ta me\-|
[M:4/2] (G2 D2 F4 E2 F2 G4- | G4 ^F4) G4 D4 | (=F2 E2 D2 E2 F2 G2 A2 B2 | c4) c4 (B6 AG | %10
w: |* * a, in|vi\- * * * * * * *|* ta me\- * *|
 B4) A4 z8 | G8 D4 G4 | F6 F2 E4 C4 | (G6 FE D2 C2 D2 E2 | F2 G2 A2 B2 c4) A4- | A4 (G8 ^F4) | %16
w: * a,|can- ta- bo|Do- mi- no in|vi\- * * * * * *|* * * * * ta|* me\- *|
 G8 z4 G4- | G4 E4 G4 G4 | (E2 D2 C2 D2 E2 F2 G2 C2 | E2 F2 G8 ^F4) | G4 D4 D4 E4 | D8 z4 G4- | %22
w: a, psal\-|* lam De- o|me\- * * * * * * *||o quam- di- u|sum, psal\-|
 G4 E4 G4 D4 | (E6 DE D2 E2 F2 C2) | (E4 D4) C4 G4 | E4 c8 B4 | G8 E4 c4- | c4 G4 (A4 B4) | %28
w: * lam De- o|me\- * * * * * *|* * o, psal-|lam De- o,|psal- lam De\-|* o me\- *|
 c4 G8 E4 | G4 A4 G4 F4 | z4 C8 A,4 | C4 D4 (E2 C2 A4- | A4) A4 B4 B4- | B4 c4 B8- | B8 z4 A4 | %35
w: o, psal- lam|De- o me- o,|psal- lam|De- o me\- * *|* o quam- di\-|* u sum,|* psal-|
 B4 G4 ^F4 G4- | (G4 ^F4 G6 A2 | B4 c8 B4) | c8 z4 G4 | E4 (A2 B2 c2 B2 A2 G2 | %40
w: lam De- o me\-|||o, psal-|lam De\- * * * * *|
 F2 G2 A2 G2 A2 B2 c4- | c4 B4 c6 BA) | (B2 G2 c8) c4 | (B4 A4) B4 B,4 | A,4 B,8 G,4 | %45
w: ||* * * o|me\- * o, psal-|lam De- o|
 A,4 E4 z4 D4 | G12 C4 | G4 (G6 F2 E4) | A,4 ^C4 D4 D4 | B,4 D4 E4 D4- | D4 G,4 z4 C4- | %51
w: me- o quam-|di- u|sum, quam\- * *|di- u sum, psal-|lam De- o me\-|* o quam\-|
 C4 B,8 E4 | !fermata!D16 |] %53
w: * di- u|sum.|
V:3
 z16 | z16 | z16 | z16 | z4 G4 (d6 cB | A2 B2 c2 d2 e6 dc) |[M:4/2][K:treble-8] B4 d4 (c4 B4 | %7
w: ||||in vi\- * *||* ta me\- *|
 A8 G2 A2 B2 G2 | A4) B4 z4 c4 | (g6 fe d2 c2 d2 e2 | f2 g2 a4) e4 g4 | d8 z8 | d8 G4 g4 | %13
w: |* a, in|vi\- * * * * * *|* * * ta me-|a,|can- ta- bo|
 c6 c2 B4 G4 | (d6 cB A2 B2 c2 d2 | e4) e4 d8 | G16- | G16 | z4 g8 e4 | g4 e4 d8 | d4 B4 B4 c4 | %21
w: Do- mi- no in|vi\- * * * * * *|* ta me-|a:||psal- lam|De- o me-|o quam- di- u|
 B8 z8 | z8 z4 d4 | g12 c4 | g4 g8 e4 | g4 e4 d8 | c4 e4 c4 f4- | f4 e4 (f4 g4) | c8 z4 g4 | %29
w: sum,|quam-|di- u|sum, psal- lam|De- o me-|o, psal- lam De\-|* o me\- *|o, psal-|
 e4 f4 e4 c4- | c4 A4 (c6 d2 | e4) f4 e8 | d4 d4 g8- | g4 c4 g4 g4 | e4 g8 f4 | e8 d8 | z4 d8 B4 | %37
w: lam De- o, psal\-|* lam De\- *|* o me-|o quam- di\-|* u sum, psal-|lam De- o|me- o,|psal- lam|
 d4 e4 d8 | c4 g4 a4 (g4- | g4 f4) f8 | z8 z4 g4 | e4 g8 c4 | (g4 a6 g2 g4- | g4 ^f4) g4 d4- | %44
w: De- o me-|o, psal- lam De\-|* * o,|psal-|lam De- o|me\- * * *|* * o, psal\-|
 d4 e4 d8 | d4 (c8 B4) | c8 z8 | z8 G8 | d4 G4 A8 | z4 B4 c4 B4- | B2 c2 d4 e4 e4 | d12 c4 | %52
w: * lam De-|o me\- *|o|quam-|di- u sum,|psal- lam De\-|* o me- o quam-|di- u|
 !fermata!B16 |] %53
w: sum.|
V:4
 z16 | z16 | z16 | z16 | z16 | z16 |[M:4/2] z16 | z8 G,8 | D,4 G,4 F,6 F,2 | E,4 C,4 (G,6 F,E, | %10
w: |||||||Can-|ta- bo Do- mi-|no in vi\- * *|
 D,2 E,2 F,2 G,2 A,4) E,4 | (G,12 F,2 E,2) | D,8 C,8- | C,8 z8 | z16 | z8 z4 D4- | D4 B,4 D4 E4 | %17
w: * * * * * ta|me\- * *|* a:|||psal\-|* lam De- o|
 (B,4 C8 B,4) | C8 z8 | z8 D,8 | G,12 C,4 | G,8 z8 | z8 G,8- | G,4 E,4 G,4 A,4 | G,8 C,8 | z8 G,8 | %26
w: me\- * *|o|quam-|di- u|sum,|psal\-|* lam De- o|me- o|quam-|
 C12 F,4 | C8 z8 | z8 C8- | C4 A,4 C4 F,4 | A,16- | A,16 | D,8 z8 | z16 | z16 | z16 | D,8 G,8- | %37
w: di- u|sum,|psal\-|* lam De- o|me\-||o||||quam- di\-|
 G,4 C,4 G,8 | z4 C4 A,4 C4- | C4 F,4 z4 F4 | D4 F8 C4 | z4 E4 C4 E4- | E4 F4 C8 | D8 z4 G,4 | %44
w: * u sum,|psal- lam De\-|* o, psal-|lam De- o,|psal- lam De\-|* o me-|o, psal-|
 ^F,4 (G,8 =F,2 E,2 | D,4 E,4 D,8) | C,4 (C6 B,2 A,4) | (G,6 F,2 E,4) C,4 | D,4 E,4 D,8 | %49
w: lam De\- * *||o me\- * *|o * * quam-|di- u sum,|
 G,8 E,4 G,4- | G,2 A,2 B,4 C4 C,4 | G,12 C,4 | !fermata!G,16 |] %53
w: psal- lam De\-|* o me- o quam-|di- u|sum.|

